X: 345
T:Princess of the Manor
M:6/8
L:1/8
C:Donogh Hennessy
R:reel
D:Lnasa: Redwood
Z:Devin McCabe
K:ADor
EAA A B/2c/2d|eBd cAB|~G3 EGD|GFG D E/2F/2G|
!~E3 A B/2c/2d|eBd cde|gab age|1deg A2D:|2dBe A2d|
!|:eaa age|deg BAG|~B3 d B/2c/2d|edB deg|
!eaa age|deg A~B2|gab age|1dBe A2d:|2deg A2D||
